**kern	**kern	**dynam
*part1	*part1	*part1
*staff2	*staff1	*
*I"Piano	*	*
*clefF4	*clefF4	*
*k[b-e-a-d-]	*k[b-e-a-d-]	*
=1	=1	=1
4r	4r	.
*	*^	*
(4AAA-' 4AA-	([2c [2e-	2.E-	p
4FFF' 4FF	.	.	.
4GGG') 4GG	8cL] 8e-]	.	.
.	8B-J) 8d-	.	.
*	*v	*v	*
=	=	=
4r	4r	.
!	!LO:TX:b:i:t=dim.	!
(4AAA-' 4AA-	([2E- [2A- [2c	.
4FFF' 4FF	.	.
4GGG') 4GG	8E-L] 8A-] 8c]	.
.	8D-J) 8B-	.
=	=	=
4r	2r	.
(4AAA-' 4AA-	.	.
4FFF' 4FF	(2C' 2E- 2A-	.
4GGG') 4GG	.	.
=	=	=
4r	2r	.
(4AAA-' 4AA-	.	.
4FFF' 4FF	2E-') 2A- 2c	.
4GGG') 4GG	.	.
=	=	=
4r	2r	.
(4AAA-' 4AA-	.	.
4FFF' 4FF	[2E- [2A- [2c [2e-	.
4GGG') 4GG	.	.
=	=	=
2r	1E-] 1A-] 1c] 1e-]	.
[2AAA- [2AA-	.	.
*	*clefG2	*
=	=	=
1AAA-;] 1AA-] 1E- 1A-	1c; 1e- 1a- 1cc	ppp
==	==	==
*-	*-	*-
!!!system-decoration: {(s1,s2)}
